X:400
T: Thadelo's
S: "Johnny O'Leary of Sliabh Luachra" (#104)
Z: B.Black
L: 1/8
M: 2/4
Q: 280
R: polka
K: A
B>f ef|ec (3B/c/B/A|Bc ef|ec (3B/c/B/A|
af ef|ec (3B/c/B/A|Bc e/f/e/c/|1 BA A2 :|2\
BA Ac/B/||
AG/A/ Bc/B/|AB/A/ fe/f/|e/c/B e/c/B|c/B/A ec/B/|
A2 Bc/B/|AB/A/ fe/f/|e/c/B e/c/B|1 c/B/A Ac/B/ :|2\
B z A2 ||
